svg/order_alphabetical_descending.svg

<svg xmlns="http://www.w3.org/2000/svg" viewBox="0 0 24 24"><path d="M7 13H5c-1.1 0-2 .9-2 2v6h2v-2h2v2h2v-6a2 2 0 0 0-2-2m0 4H5v-2h2M9 3v2L5.67 9H9v2H3V9l3.33-4H3V3m9 2h10v2H12m0 12v-2h10v2m-10-8h10v2H12Z"/></svg>

<?xml version="1.0" encoding="UTF-8"?><!DOCTYPE svg PUBLIC "-//W3C//DTD SVG 1.1//EN" "http://www.w3.org/Graphics/SVG/1.1/DTD/svg11.dtd"><svg xmlns="http://www.w3.org/2000/svg" xmlns:xlink="http://www.w3.org/1999/xlink" version="1.1" id="mdi-order-alphabetical-descending" width="24" height="24" viewBox="0 0 24 24"><path d="M7 13H5C3.9 13 3 13.9 3 15V21H5V19H7V21H9V15C9 13.9 8.11 13 7 13M7 17H5V15H7M9 3V5L5.67 9H9V11H3V9L6.33 5H3V3M12 5H22V7H12M12 19V17H22V19M12 11H22V13H12Z" /></svg>
